img/icons/star-gray.svg

<svg width="21" height="18" viewBox="0 0 21 18" fill="none" xmlns="http://www.w3.org/2000/svg">
<path d="M11.2685 0.433673L14.0466 5.09198L19.4503 6.23507C19.9256 6.33534 20.2277 6.79372 20.1251 7.2607C20.0869 7.43546 19.996 7.5873 19.8728 7.70189L16.238 11.6755L16.7925 17.0529C16.8394 17.5256 16.4874 17.9467 16.0033 17.9926C15.8449 18.0069 15.6953 17.9811 15.5604 17.9238L10.4999 15.7494L5.44231 17.9267C4.9964 18.1186 4.47422 17.9209 4.27766 17.4826C4.20726 17.3251 4.18672 17.156 4.21606 16.9985L4.76464 11.6755L1.08295 7.65319C0.760256 7.29794 0.789593 6.75362 1.15336 6.43848C1.27071 6.33534 1.40859 6.26658 1.55527 6.23794L1.55233 6.23507L6.95605 5.09198L9.73712 0.430809C9.98061 0.0182647 10.5204 -0.122115 10.9428 0.115671C11.0837 0.195888 11.1922 0.307618 11.2685 0.433673Z" fill="#202020" fill-opacity="0.2"/>
</svg>

<svg width="21" height="18" fill="none" xmlns="http://www.w3.org/2000/svg"><path d="m11.268.434 2.779 4.658 5.403 1.143c.476.1.778.559.675 1.026a.85.85 0 0 1-.252.44l-3.635 3.974.555 5.378a.865.865 0 0 1-.79.94.914.914 0 0 1-.443-.07L10.5 15.75l-5.058 2.178a.891.891 0 0 1-1.164-.444.82.82 0 0 1-.062-.485l.549-5.323-3.682-4.022a.847.847 0 0 1 .07-1.215.858.858 0 0 1 .402-.2l-.003-.003 5.404-1.143L9.737.431a.894.894 0 0 1 1.531.003Z" fill="#202020" fill-opacity=".2"/></svg>
